; generated by PrusaSlicer 2.3.3+win64 on 2021-11-10 at 14:03:14 UTC

; TEST PRINT --> adjusted for no extrusion and 40-degree temp on bed and nozzle, everything else left as-is

; external perimeters extrusion width = 0.45mm
; perimeters extrusion width = 0.45mm
; infill extrusion width = 0.45mm
; solid infill extrusion width = 0.45mm
; top infill extrusion width = 0.40mm
; first layer extrusion width = 0.42mm

M73 P0 R5
M73 Q0 S5
M201 X1000 Y1000 Z200 E0.0 ; sets maximum accelerations, mm/sec^2
M203 X200 Y200 Z12 E0.0 ; sets maximum feedrates, mm/sec
M204 P1250 R1250 T1250 ; sets acceleration (P, T) and retract acceleration (R), mm/sec^2
M205 X8.00 Y8.00 Z0.40 E0.0 ; sets the jerk limits, mm/sec
M205 S0 T0 ; sets the minimum extruding and travel feed rate, mm/sec
M107
;TYPE:Custom

; VERSION CHECKS REMOVED

G90 ; use absolute coordinates
M83 ; extruder relative mode
M104 S40 ; set extruder temp
M140 S40 ; set bed temp
Tx
M190 S40 ; wait for bed temp
M109 S40 ; wait for extruder temp
G28 W ; home all without mesh bed level
G80 ; mesh bed leveling

;go outside print area
G1 Y-3.0 F1000.0
G1 Z10.4 F1000.0
; select extruder
Tc
; purge line
G1 X55.0 F2000.0
G1 Z10.3 F1000.0
G92 E0.0
G1 X240.0 E0.0 F2200.0
M73 P2 R5
M73 Q2 S5
G1 Y-2.0 F1000.0
G1 X55.0 E0.0 F1400.0
M73 P4 R5
M73 Q4 S5
G1 Z10.20 F1000.0
G1 X5.0 E0.0 F1000.0

M221 S95
G92 E0.0

; Don't change E values below. Excessive value can damage the printer.

M907 E0.0 ; set extruder motor current
G21 ; set units to millimeters
G90 ; use absolute coordinates
M83 ; use relative distances for extrusion
M900 K0.05 ; Filament gcode LA 1.5
M900 K30 ; Filament gcode LA 1.0
;LAYER_CHANGE
;Z:0.2
;HEIGHT:0.2
;BEFORE_LAYER_CHANGE
G92 E0.0
;0.2


M73 P5 R5
M73 Q5 S5
;G1 E-0.0 F2100.000
G1 Z10.400 F10800.000
;AFTER_LAYER_CHANGE
;0.2
G1 X18.561 Y13.991
G1 Z10.200
G1 E0.0 F2100.000
M204 S1000
;TYPE:Skirt
;WIDTH:0.42
G1 F1200.000
G1 X20.496 Y13.068 E0.0
G1 X22.555 Y12.483 E0.0
G1 X24.711 Y12.249 E0.0
G1 X230.089 Y12.246 E0.0
M73 P9 R5
M73 Q9 S5
G1 X232.282 Y12.452 E0.0
G1 X233.494 Y12.734 E0.0
G1 X234.710 Y13.147 E0.0
G1 X235.872 Y13.678 E0.0
G1 X236.951 Y14.306 E0.0
G1 X238.706 Y15.679 E0.0
G1 X239.574 Y16.572 E0.0
G1 X240.371 Y17.575 E0.0
G1 X241.061 Y18.649 E0.0
G1 X241.631 Y19.765 E0.0
G1 X242.363 Y21.863 E0.0
G1 X242.610 Y23.086 E0.0
G1 X242.739 Y24.373 E0.0
G1 X242.753 Y185.238 E0.0
M73 P12 R5
M73 Q11 S5
G1 X242.666 Y186.503 E0.0
M73 Q12 S5
G1 X242.442 Y187.806 E0.0
G1 X241.985 Y189.363 E0.0
G1 X241.482 Y190.555 E0.0
G1 X240.847 Y191.710 E0.0
G1 X240.115 Y192.770 E0.0
G1 X239.278 Y193.752 E0.0
G1 X238.323 Y194.665 E0.0
G1 X236.584 Y195.924 E0.0
G1 X235.494 Y196.510 E0.0
G1 X234.346 Y196.991 E0.0
G1 X232.244 Y197.555 E0.0
G1 X230.125 Y197.754 E0.0
G1 X25.068 Y197.754 E0.0
M73 P15 R4
M73 Q15 S4
G1 X23.778 Y197.695 E0.0
G1 X22.174 Y197.437 E0.0
G1 X20.902 Y197.078 E0.0
G1 X19.696 Y196.599 E0.0
G1 X18.524 Y195.987 E0.0
G1 X17.178 Y195.073 E0.0
G1 X16.174 Y194.207 E0.0
G1 X15.282 Y193.259 E0.0
G1 X14.044 Y191.529 E0.0
G1 X13.105 Y189.601 E0.0
G1 X12.503 Y187.547 E0.0
G1 X12.253 Y185.385 E0.0
G1 X12.247 Y24.975 E0.0
M73 P18 R4
M73 Q18 S4
G1 X12.316 Y23.673 E0.0
G1 X12.588 Y22.069 E0.0
G1 X12.958 Y20.800 E0.0
G1 X13.445 Y19.602 E0.0
G1 X14.049 Y18.463 E0.0
G1 X14.786 Y17.363 E0.0
G1 X15.840 Y16.126 E0.0
G1 X16.804 Y15.228 E0.0
G1 X18.512 Y14.026 E0.0
G1 X18.728 Y14.333 F10800.000
G1 F1200.000
G1 X20.629 Y13.421 E0.0
G1 X22.626 Y12.853 E0.0
G1 X24.717 Y12.626 E0.0
G1 X230.089 Y12.623 E0.0
M73 P22 R4
M73 Q21 S4
G1 X231.344 Y12.696 E0.0
G1 X232.545 Y12.888 E0.0
G1 X234.602 Y13.510 E0.0
G1 X235.705 Y14.016 E0.0
G1 X236.778 Y14.643 E0.0
G1 X237.786 Y15.378 E0.0
M73 Q22 S4
G1 X238.687 Y16.184 E0.0
G1 X240.084 Y17.822 E0.0
G1 X240.738 Y18.843 E0.0
G1 X241.301 Y19.951 E0.0
G1 X241.751 Y21.111 E0.0
G1 X242.075 Y22.279 E0.0
G1 X242.363 Y24.394 E0.0
G1 X242.376 Y185.229 E0.0
M73 P24 R4
M73 Q24 S4
G1 X242.292 Y186.458 E0.0
G1 X242.075 Y187.721 E0.0
G1 X241.629 Y189.239 E0.0
G1 X241.142 Y190.391 E0.0
G1 X240.525 Y191.514 E0.0
G1 X239.816 Y192.540 E0.0
G1 X239.005 Y193.492 E0.0
G1 X238.078 Y194.377 E0.0
M73 P25 R4
G1 X236.393 Y195.598 E0.0
G1 X235.332 Y196.170 E0.0
G1 X234.217 Y196.636 E0.0
G1 X232.178 Y197.184 E0.0
G1 X230.118 Y197.376 E0.0
M73 Q25 S4
G1 X25.069 Y197.377 E0.0
M73 P28 R4
M73 Q28 S4
G1 X23.819 Y197.320 E0.0
G1 X22.253 Y197.068 E0.0
G1 X21.020 Y196.719 E0.0
G1 X19.854 Y196.256 E0.0
G1 X18.721 Y195.666 E0.0
G1 X17.406 Y194.772 E0.0
G1 X16.436 Y193.935 E0.0
G1 X15.568 Y193.013 E0.0
G1 X14.369 Y191.336 E0.0
G1 X13.457 Y189.466 E0.0
G1 X12.873 Y187.473 E0.0
G1 X12.630 Y185.376 E0.0
G1 X12.624 Y24.981 E0.0
M73 P31 R4
M73 Q31 S4
G1 X12.691 Y23.715 E0.0
G1 X12.956 Y22.151 E0.0
G1 X13.315 Y20.921 E0.0
G1 X13.787 Y19.762 E0.0
G1 X14.372 Y18.657 E0.0
G1 X15.085 Y17.593 E0.0
G1 X16.114 Y16.385 E0.0
G1 X17.049 Y15.515 E0.0
G1 X18.679 Y14.367 E0.0
; printing object Single_Layer_Disc.stl id:0 copy 0
;WIPE_START
G1 F8640.000
G1 X20.629 Y13.421 E-0.0
G1 X21.710 Y13.113 E-0.0
;WIPE_END
G1 E-0.0 F2100.000
G1 Z10.600 F10800.000
G1 X20.231 Y17.127
G1 Z10.200
G1 E0.0 F2100.000
;TYPE:Perimeter
G1 F1200.000
G1 X20.894 Y16.754 E0.0
G1 X21.745 Y16.382 E0.0
G1 X22.629 Y16.098 E0.0
G1 X23.537 Y15.905 E0.0
G1 X24.459 Y15.804 E0.0
G1 X25.387 Y15.796 E0.0
G1 X26.312 Y15.882 E0.0
G1 X27.223 Y16.060 E0.0
G1 X28.111 Y16.329 E0.0
G1 X28.968 Y16.686 E0.0
G1 X29.784 Y17.127 E0.0
G1 X30.552 Y17.649 E0.0
G1 X31.264 Y18.245 E0.0
G1 X31.912 Y18.909 E0.0
G1 X32.490 Y19.635 E0.0
G1 X32.992 Y20.416 E0.0
G1 X33.414 Y21.248 E0.0
G1 X33.644 Y21.812 E0.0
G1 X33.922 Y22.703 E0.0
G1 X34.108 Y23.612 E0.0
G1 X34.201 Y24.536 E0.0
G1 X34.201 Y25.464 E0.0
G1 X34.108 Y26.388 E0.0
G1 X33.922 Y27.297 E0.0
G1 X33.644 Y28.188 E0.0
G1 X33.414 Y28.752 E0.0
G1 X32.992 Y29.584 E0.0
G1 X32.490 Y30.365 E0.0
G1 X31.912 Y31.091 E0.0
G1 X31.264 Y31.755 E0.0
G1 X30.552 Y32.351 E0.0
M73 P32 R4
G1 X29.784 Y32.873 E0.0
G1 X28.968 Y33.314 E0.0
G1 X28.111 Y33.671 E0.0
G1 X27.223 Y33.940 E0.0
G1 X26.312 Y34.118 E0.0
G1 X25.387 Y34.204 E0.0
G1 X24.459 Y34.196 E0.0
G1 X23.537 Y34.095 E0.0
G1 X22.624 Y33.901 E0.0
G1 X22.041 Y33.724 E0.0
G1 X21.174 Y33.380 E0.0
G1 X20.350 Y32.952 E0.0
G1 X19.573 Y32.444 E0.0
M73 Q32 S4
G1 X18.852 Y31.860 E0.0
G1 X18.189 Y31.203 E0.0
G1 X17.794 Y30.739 E0.0
G1 X17.251 Y29.980 E0.0
G1 X16.789 Y29.175 E0.0
G1 X16.411 Y28.328 E0.0
G1 X16.119 Y27.447 E0.0
G1 X15.918 Y26.540 E0.0
G1 X15.809 Y25.619 E0.0
G1 X15.794 Y24.691 E0.0
G1 X15.872 Y23.766 E0.0
G1 X16.042 Y22.853 E0.0
G1 X16.304 Y21.963 E0.0
G1 X16.653 Y21.103 E0.0
G1 X17.088 Y20.283 E0.0
G1 X17.603 Y19.510 E0.0
G1 X18.193 Y18.794 E0.0
G1 X18.852 Y18.140 E0.0
G1 X19.577 Y17.553 E0.0
G1 X20.179 Y17.156 E0.0
G1 X19.994 Y16.827 F10800.000
;TYPE:External perimeter
G1 F1200.000
G1 X20.726 Y16.416 E0.0
G1 X21.612 Y16.029 E0.0
G1 X22.532 Y15.734 E0.0
G1 X23.477 Y15.532 E0.0
G1 X24.437 Y15.427 E0.0
G1 X25.403 Y15.419 E0.0
G1 X26.365 Y15.508 E0.0
G1 X27.314 Y15.693 E0.0
G1 X28.238 Y15.973 E0.0
G1 X29.130 Y16.345 E0.0
G1 X29.980 Y16.805 E0.0
G1 X30.780 Y17.347 E0.0
G1 X31.521 Y17.968 E0.0
G1 X32.195 Y18.659 E0.0
G1 X32.797 Y19.416 E0.0
G1 X33.319 Y20.228 E0.0
G1 X33.758 Y21.091 E0.0
G1 X33.999 Y21.685 E0.0
G1 X34.288 Y22.609 E0.0
G1 X34.481 Y23.556 E0.0
G1 X34.578 Y24.517 E0.0
G1 X34.578 Y25.483 E0.0
G1 X34.481 Y26.444 E0.0
G1 X34.288 Y27.391 E0.0
G1 X33.999 Y28.315 E0.0
G1 X33.758 Y28.909 E0.0
G1 X33.319 Y29.772 E0.0
G1 X32.797 Y30.584 E0.0
G1 X32.195 Y31.341 E0.0
G1 X31.521 Y32.032 E0.0
G1 X30.780 Y32.653 E0.0
G1 X29.980 Y33.195 E0.0
G1 X29.130 Y33.655 E0.0
G1 X28.238 Y34.027 E0.0
G1 X27.314 Y34.307 E0.0
M73 P33 R4
G1 X26.365 Y34.492 E0.0
G1 X25.403 Y34.581 E0.0
G1 X24.437 Y34.573 E0.0
G1 X23.477 Y34.468 E0.0
G1 X22.530 Y34.266 E0.0
G1 X21.917 Y34.080 E0.0
G1 X21.017 Y33.723 E0.0
G1 X20.159 Y33.278 E0.0
G1 X19.351 Y32.749 E0.0
G1 X18.600 Y32.141 E0.0
G1 X17.913 Y31.459 E0.0
G1 X17.497 Y30.972 E0.0
G1 X16.933 Y30.185 E0.0
M73 Q33 S4
G1 X16.453 Y29.346 E0.0
G1 X16.059 Y28.464 E0.0
G1 X15.755 Y27.547 E0.0
G1 X15.546 Y26.603 E0.0
G1 X15.433 Y25.644 E0.0
G1 X15.416 Y24.678 E0.0
G1 X15.497 Y23.715 E0.0
G1 X15.675 Y22.765 E0.0
G1 X15.947 Y21.838 E0.0
G1 X16.311 Y20.943 E0.0
G1 X16.764 Y20.089 E0.0
G1 X17.300 Y19.285 E0.0
G1 X17.914 Y18.539 E0.0
G1 X18.600 Y17.859 E0.0
G1 X19.352 Y17.250 E0.0
G1 X19.942 Y16.857 E0.0
G1 X20.346 Y17.017 F10800.000
;WIPE_START
G1 F8640.000
G1 X20.726 Y16.416 E-0.0
G1 X21.612 Y16.029 E-0.0
G1 X22.532 Y15.734 E-0.0
G1 X22.981 Y15.638 E-0.0
;WIPE_END
G1 E-0.0 F2100.000
G1 Z10.600 F10800.000
G1 X32.539 Y19.922
G1 Z10.200
G1 E0.0 F2100.000
;TYPE:Solid infill
;WIDTH:0.422489
G1 F1200.000
G1 X31.061 Y18.443 E0.0
G1 X30.382 Y17.875 E0.0
M73 P33 R3
G1 X29.637 Y17.369 E0.0
G1 X29.229 Y17.149 E0.0
G1 X32.858 Y20.777 E0.0
G1 X33.157 Y21.366 E0.0
G1 X33.327 Y21.783 E0.0
G1 X28.228 Y16.684 E0.0
G1 X28.015 Y16.595 E0.0
G1 X27.423 Y16.416 E0.0
G1 X33.587 Y22.580 E0.0
M73 P34 R3
G1 X33.648 Y22.774 E0.0
G1 X33.751 Y23.281 E0.0
G1 X26.720 Y16.250 E0.0
M73 Q34 S4
G1 X26.271 Y16.162 E0.0
G1 X26.077 Y16.144 E0.0
G1 X33.855 Y23.921 E0.0
M73 Q34 S3
G1 X33.915 Y24.518 E0.0
G1 X25.486 Y16.089 E0.0
G1 X24.942 Y16.083 E0.0
G1 X33.918 Y25.058 E0.0
G1 X33.905 Y25.582 E0.0
G1 X24.416 Y16.093 E0.0
M73 P35 R3
G1 X23.932 Y16.146 E0.0
G1 X33.856 Y26.069 E0.0
M73 Q35 S3
G1 X33.788 Y26.539 E0.0
G1 X23.460 Y16.210 E0.0
G1 X23.018 Y16.305 E0.0
G1 X33.697 Y26.984 E0.0
G1 X33.589 Y27.413 E0.0
G1 X22.585 Y16.409 E0.0
M73 P36 R3
G1 X22.179 Y16.540 E0.0
G1 X33.462 Y27.822 E0.0
M73 Q36 S3
G1 X33.325 Y28.222 E0.0
G1 X21.779 Y16.676 E0.0
G1 X21.405 Y16.839 E0.0
G1 X33.169 Y28.604 E0.0
G1 X32.991 Y28.962 E0.0
G1 X21.031 Y17.002 E0.0
M73 P37 R3
G1 X20.687 Y17.195 E0.0
G1 X32.810 Y29.318 E0.0
M73 Q37 S3
G1 X32.610 Y29.655 E0.0
G1 X20.343 Y17.388 E0.0
G1 X20.016 Y17.597 E0.0
G1 X32.400 Y29.981 E0.0
G1 X32.181 Y30.299 E0.0
G1 X19.700 Y17.818 E0.0
M73 P38 R3
M73 Q38 S3
G1 X19.403 Y18.058 E0.0
G1 X31.943 Y30.598 E0.0
G1 X31.705 Y30.897 E0.0
G1 X19.106 Y18.298 E0.0
G1 X18.831 Y18.559 E0.0
G1 X31.441 Y31.169 E0.0
M73 P39 R3
G1 X31.176 Y31.441 E0.0
G1 X18.561 Y18.827 E0.0
M73 Q39 S3
G1 X18.402 Y18.985 E0.0
G1 X18.303 Y19.105 E0.0
G1 X30.894 Y31.696 E0.0
G1 X30.602 Y31.941 E0.0
G1 X18.060 Y19.400 E0.0
G1 X17.819 Y19.695 E0.0
G1 X30.303 Y32.179 E0.0
M73 P40 R3
M73 Q40 S3
G1 X29.983 Y32.396 E0.0
G1 X17.605 Y20.017 E0.0
G1 X17.390 Y20.339 E0.0
G1 X29.664 Y32.613 E0.0
G1 X29.317 Y32.804 E0.0
G1 X17.196 Y20.682 E0.0
M73 P41 R3
G1 X17.010 Y21.033 E0.0
G1 X28.969 Y32.992 E0.0
M73 Q41 S3
G1 X28.601 Y33.161 E0.0
G1 X16.839 Y21.398 E0.0
G1 X16.683 Y21.780 E0.0
G1 X28.222 Y33.319 E0.0
G1 X27.828 Y33.461 E0.0
G1 X16.537 Y22.171 E0.0
M73 P42 R3
G1 X16.415 Y22.586 E0.0
G1 X27.416 Y33.586 E0.0
M73 Q42 S3
G1 X26.990 Y33.697 E0.0
G1 X16.301 Y23.008 E0.0
G1 X16.216 Y23.460 E0.0
G1 X26.541 Y33.785 E0.0
G1 X26.076 Y33.856 E0.0
G1 X16.142 Y23.923 E0.0
M73 P43 R3
G1 X16.101 Y24.418 E0.0
G1 X25.584 Y33.902 E0.0
M73 Q43 S3
G1 X25.376 Y33.921 E0.0
G1 X25.064 Y33.919 E0.0
G1 X16.081 Y24.935 E0.0
G1 X16.090 Y25.481 E0.0
G1 X24.523 Y33.914 E0.0
G1 X23.925 Y33.853 E0.0
G1 X16.148 Y26.076 E0.0
G1 X16.197 Y26.493 E0.0
M73 P44 R3
G1 X16.246 Y26.710 E0.0
G1 X23.288 Y33.753 E0.0
G1 X22.595 Y33.596 E0.0
G1 X16.403 Y27.405 E0.0
M73 Q44 S3
G1 X16.668 Y28.207 E0.0
G1 X21.777 Y33.315 E0.0
G1 X21.291 Y33.122 E0.0
G1 X20.783 Y32.858 E0.0
G1 X17.135 Y29.210 E0.0
G1 X17.489 Y29.827 E0.0
G1 X18.017 Y30.565 E0.0
G1 X18.387 Y30.999 E0.0
G1 X19.931 Y32.542 E0.0
; stop printing object Single_Layer_Disc.stl id:0 copy 0
; printing object Single_Layer_Disc.stl id:4 copy 0
;WIPE_START
G1 F8640.000
G1 X18.387 Y30.999 E-0.0
G1 X18.017 Y30.565 E-0.0
G1 X17.704 Y30.127 E-0.0
;WIPE_END
G1 E-0.0 F2100.000
G1 Z10.600 F10800.000
G1 X117.603 Y99.510
G1 Z10.200
G1 E0.0 F2100.000
;TYPE:Perimeter
;WIDTH:0.42
G1 F1200.000
G1 X118.193 Y98.794 E0.0
G1 X118.852 Y98.140 E0.0
M73 P45 R3
G1 X119.577 Y97.553 E0.0
G1 X120.081 Y97.211 E0.0
G1 X120.894 Y96.754 E0.0
G1 X121.745 Y96.382 E0.0
G1 X122.629 Y96.098 E0.0
G1 X123.537 Y95.905 E0.0
G1 X124.459 Y95.804 E0.0
G1 X125.388 Y95.796 E0.0
G1 X126.312 Y95.882 E0.0
G1 X127.223 Y96.060 E0.0
G1 X128.111 Y96.329 E0.0
G1 X128.968 Y96.686 E0.0
G1 X129.784 Y97.127 E0.0
M73 Q45 S3
G1 X130.552 Y97.649 E0.0
G1 X131.264 Y98.245 E0.0
G1 X131.912 Y98.909 E0.0
G1 X132.490 Y99.635 E0.0
G1 X132.992 Y100.416 E0.0
G1 X133.414 Y101.248 E0.0
G1 X133.644 Y101.812 E0.0
G1 X133.922 Y102.703 E0.0
G1 X134.108 Y103.612 E0.0
G1 X134.201 Y104.536 E0.0
G1 X134.201 Y105.464 E0.0
G1 X134.108 Y106.388 E0.0
G1 X133.922 Y107.297 E0.0
G1 X133.644 Y108.188 E0.0
G1 X133.414 Y108.752 E0.0
G1 X132.992 Y109.584 E0.0
G1 X132.490 Y110.365 E0.0
G1 X131.912 Y111.091 E0.0
G1 X131.264 Y111.755 E0.0
G1 X130.552 Y112.351 E0.0
G1 X129.784 Y112.873 E0.0
G1 X128.968 Y113.314 E0.0
G1 X128.111 Y113.671 E0.0
G1 X127.223 Y113.940 E0.0
G1 X126.312 Y114.118 E0.0
G1 X125.388 Y114.204 E0.0
G1 X124.459 Y114.196 E0.0
G1 X123.537 Y114.095 E0.0
G1 X122.624 Y113.901 E0.0
G1 X122.041 Y113.724 E0.0
G1 X121.174 Y113.380 E0.0
G1 X120.350 Y112.952 E0.0
G1 X119.573 Y112.444 E0.0
G1 X118.852 Y111.860 E0.0
G1 X118.189 Y111.203 E0.0
G1 X117.794 Y110.739 E0.0
G1 X117.251 Y109.980 E0.0
G1 X116.789 Y109.175 E0.0
G1 X116.411 Y108.328 E0.0
G1 X116.119 Y107.447 E0.0
G1 X115.918 Y106.540 E0.0
G1 X115.809 Y105.619 E0.0
G1 X115.794 Y104.691 E0.0
G1 X115.872 Y103.766 E0.0
G1 X116.042 Y102.853 E0.0
G1 X116.304 Y101.963 E0.0
G1 X116.653 Y101.103 E0.0
G1 X117.088 Y100.283 E0.0
G1 X117.570 Y99.560 E0.0
G1 X117.256 Y99.351 F10800.000
;TYPE:External perimeter
G1 F1200.000
G1 X117.914 Y98.539 E0.0
G1 X118.600 Y97.859 E0.0
G1 X119.352 Y97.250 E0.0
G1 X119.883 Y96.890 E0.0
G1 X120.726 Y96.416 E0.0
G1 X121.612 Y96.029 E0.0
G1 X122.532 Y95.734 E0.0
M73 P46 R3
G1 X123.477 Y95.532 E0.0
G1 X124.437 Y95.427 E0.0
G1 X125.403 Y95.419 E0.0
G1 X126.365 Y95.508 E0.0
G1 X127.314 Y95.693 E0.0
G1 X128.238 Y95.973 E0.0
G1 X129.130 Y96.345 E0.0
G1 X129.980 Y96.805 E0.0
G1 X130.780 Y97.347 E0.0
G1 X131.521 Y97.968 E0.0
G1 X132.195 Y98.659 E0.0
G1 X132.797 Y99.416 E0.0
G1 X133.319 Y100.228 E0.0
M73 Q46 S3
G1 X133.758 Y101.091 E0.0
G1 X133.999 Y101.685 E0.0
G1 X134.288 Y102.609 E0.0
G1 X134.481 Y103.556 E0.0
G1 X134.578 Y104.517 E0.0
G1 X134.578 Y105.483 E0.0
G1 X134.481 Y106.444 E0.0
G1 X134.288 Y107.391 E0.0
G1 X133.999 Y108.315 E0.0
G1 X133.758 Y108.909 E0.0
G1 X133.319 Y109.772 E0.0
G1 X132.797 Y110.584 E0.0
G1 X132.195 Y111.341 E0.0
G1 X131.521 Y112.032 E0.0
G1 X130.780 Y112.653 E0.0
G1 X129.980 Y113.195 E0.0
G1 X129.130 Y113.655 E0.0
G1 X128.238 Y114.027 E0.0
G1 X127.314 Y114.307 E0.0
G1 X126.365 Y114.492 E0.0
G1 X125.403 Y114.581 E0.0
G1 X124.437 Y114.573 E0.0
G1 X123.477 Y114.468 E0.0
G1 X122.530 Y114.266 E0.0
G1 X121.917 Y114.080 E0.0
G1 X121.017 Y113.723 E0.0
G1 X120.159 Y113.278 E0.0
G1 X119.351 Y112.749 E0.0
G1 X118.600 Y112.141 E0.0
G1 X117.913 Y111.459 E0.0
G1 X117.497 Y110.972 E0.0
G1 X116.933 Y110.185 E0.0
G1 X116.453 Y109.346 E0.0
G1 X116.059 Y108.464 E0.0
G1 X115.755 Y107.547 E0.0
G1 X115.546 Y106.603 E0.0
G1 X115.433 Y105.644 E0.0
G1 X115.416 Y104.678 E0.0
G1 X115.497 Y103.715 E0.0
G1 X115.675 Y102.765 E0.0
G1 X115.947 Y101.838 E0.0
G1 X116.311 Y100.943 E0.0
G1 X116.764 Y100.089 E0.0
G1 X117.223 Y99.401 E0.0
G1 X117.653 Y99.395 F10800.000
;WIPE_START
G1 F8640.000
G1 X117.914 Y98.539 E-0.0
G1 X118.600 Y97.859 E-0.0
G1 X119.352 Y97.250 E-0.0
G1 X119.561 Y97.108 E-0.0
;WIPE_END
G1 E-0.0 F2100.000
G1 Z10.600 F10800.000
G1 X132.539 Y99.922
G1 Z10.200
M73 P47 R3
G1 E0.0 F2100.000
;TYPE:Solid infill
;WIDTH:0.422489
G1 F1200.000
G1 X131.061 Y98.443 E0.0
G1 X130.382 Y97.875 E0.0
G1 X129.637 Y97.369 E0.0
G1 X129.229 Y97.149 E0.0
G1 X132.858 Y100.777 E0.0
G1 X133.157 Y101.366 E0.0
G1 X133.327 Y101.783 E0.0
M73 Q47 S3
G1 X128.228 Y96.684 E0.0
G1 X128.015 Y96.595 E0.0
G1 X127.423 Y96.416 E0.0
G1 X133.587 Y102.580 E0.0
G1 X133.648 Y102.774 E0.0
G1 X133.751 Y103.281 E0.0
G1 X126.720 Y96.250 E0.0
G1 X126.271 Y96.162 E0.0
G1 X126.077 Y96.144 E0.0
G1 X133.855 Y103.921 E0.0
G1 X133.915 Y104.518 E0.0
G1 X125.486 Y96.089 E0.0
